public/images/sponsors/Wacom.svg

<svg fill="none" height="86" viewBox="0 0 172 86" width="172" xmlns="http://www.w3.org/2000/svg"><path d="m61.4297 32.0034c-2.4512 0-3.6045.2552-4.8831.7477l-.2276.083 1.3863 2.4715.1655-.0623c.9429-.3875 1.9841-.5192 3.9313-.5192h2.0691c3.0258 0 4.7589 1.5121 4.7589 4.1744v8.1827c0 2.6603-1.7331 4.1744-4.7589 4.1744h-3.3726c-3.1013 0-4.6141-1.2476-4.6141-3.8421 0-2.574 1.5128-3.8214 4.6141-3.8214h4.6968v-2.7414h-4.8417c-4.6029 0-7.2417 2.4033-7.2417 6.5835 0 4.042 2.7752 6.5628 7.2417 6.5628h3.6416c5.083 0 7.4073-3.4053 7.4073-6.5628v-8.8888c0-3.1568-2.3243-6.542-7.4073-6.542zm20.4839 0c-5.0837 0-7.4073 3.3852-7.4073 6.542v8.8888c0 3.1575 2.3236 6.5628 7.4073 6.5628h3.145c2.5895 0 4.2866-.3797 5.6486-1.2669l.1655-.1246-1.5725-2.3053-.1655.1039c-1.0164.618-2.3025.8515-4.4279.8515h-2.6691c-3.0689 0-4.7589-1.4749-4.7589-4.1744v-8.1827c0-2.7009 1.6907-4.1744 4.7589-4.1744h2.6691c2.1227 0 3.4075.2535 4.4279.8722l.1655.1039 1.5725-2.3261-.1655-.1038c-1.362-.8866-3.0565-1.2669-5.6486-1.2669zm18.1454 0c-5.0998 0-7.4276 3.3852-7.4276 6.542v8.8888c0 3.1575 2.3237 6.5628 7.4076 6.5628h3.641c5.085 0 7.387-3.4053 7.387-6.5628v-8.8888c0-3.1561-2.325-6.542-7.428-6.542zm21.498.0416c-4.386 0-7.221 2.4991-7.221 6.355v15.4931h2.773v-15.14c0-2.6789 1.491-3.9875 4.572-3.9875 2.923 0 4.532 1.3358 4.532 3.7383v15.3892h2.772v-15.3892c0-2.4025 1.609-3.7383 4.531-3.7383 3.083 0 4.594 1.3086 4.594 3.9875v15.14h2.752v-15.4931c0-3.8559-2.837-6.355-7.221-6.355-2.927 0-4.694.7262-6.042 2.4714-1.346-1.7452-3.119-2.4714-6.042-2.4714zm-97.557.1038v15.4931c0 3.8553 2.8346 6.3551 7.2211 6.3551 2.9232 0 4.6956-.7242 6.0417-2.4714 1.3467 1.7472 3.1179 2.4714 6.0417 2.4714 4.3845 0 7.2211-2.4998 7.2211-6.3551v-15.4931h-2.7519v15.14c0 2.6777-1.5119 3.9668-4.5933 3.9668-2.9219 0-4.5313-1.3171-4.5313-3.7175v-15.3893h-2.7519v15.3893c0 2.3998-1.6087 3.7175-4.5313 3.7175-3.0814 0-4.5933-1.2891-4.5933-3.9668v-15.14zm121.89 0c-.582 0-1.08.2103-1.49.623-.413.4147-.621.9099-.621 1.4954 0 .5908.213 1.1013.621 1.516.409.4154.904.6231 1.49.6231.584 0 1.077-.2077 1.489-.6231.414-.4173.621-.9279.621-1.516 0-.5869-.207-1.082-.621-1.4954-.412-.4127-.905-.623-1.489-.623zm0 .2908c.503 0 .927.1804 1.282.5399.353.3569.538.802.538 1.3084 0 .5084-.185.9288-.538 1.2877-.352.3588-.777.5399-1.282.5399-.504 0-.931-.1811-1.283-.5399-.351-.3589-.538-.7793-.538-1.2877 0-.5057.185-.9515.538-1.3084.355-.3595.782-.5399 1.283-.5399zm-.849.6645v2.3261h.393v-.9138h.331c.219 0 .369.0339.456.083.145.0864.207.2494.206.5193v.1869l.021.083c.003.0107-.002.0128 0 .0208.003.008-.003.0121 0 .0208h.393l-.02-.0208c-.011-.0206-.017-.0621-.021-.1246-.005-.0611 0-.1117 0-.1661v-.187c0-.1183-.039-.2294-.124-.353-.084-.1243-.212-.1999-.393-.2285.145-.0232.253-.0526.331-.1038.152-.099.227-.2697.227-.4777 0-.2951-.133-.4818-.372-.5815-.134-.0565-.333-.0831-.621-.0831zm.393.27h.352c.227 0 .393.044.497.1039.103.0565.165.1634.165.3323 0 .1794-.086.3093-.248.3738-.086.0339-.22.0415-.393.0415h-.373zm-45.271 1.35h3.372c3.026 0 4.759 1.5121 4.759 4.1744v8.1827c0 2.6603-1.733 4.1744-4.759 4.1744h-3.372c-3.0703 0-4.759-1.4749-4.759-4.1744v-8.1827c0-2.6624 1.7337-4.1744 4.759-4.1744z" fill="#000"/></svg>

<svg width="172" height="86" viewBox="0 0 172 86" fill="none" xmlns="http://www.w3.org/2000/svg">
<path d="M61.4297 32.0034C58.9785 32.0034 57.8252 32.2586 56.5466 32.7511L56.319 32.8341L57.7053 35.3056L57.8708 35.2433C58.8137 34.8558 59.8549 34.7241 61.8021 34.7241H63.8712C66.897 34.7241 68.6301 36.2362 68.6301 38.8985V47.0812C68.6301 49.7415 66.897 51.2556 63.8712 51.2556H60.4986C57.3973 51.2556 55.8845 50.008 55.8845 47.4135C55.8845 44.8395 57.3973 43.5921 60.4986 43.5921H65.1954V40.8507H60.3537C55.7508 40.8507 53.112 43.254 53.112 47.4342C53.112 51.4762 55.8872 53.997 60.3537 53.997H63.9953C69.0783 53.997 71.4026 50.5917 71.4026 47.4342V38.5454C71.4026 35.3886 69.0783 32.0034 63.9953 32.0034H61.4297ZM81.9136 32.0034C76.8299 32.0034 74.5063 35.3886 74.5063 38.5454V47.4342C74.5063 50.5917 76.8299 53.997 81.9136 53.997H85.0586C87.6481 53.997 89.3452 53.6173 90.7072 52.7301L90.8727 52.6055L89.3002 50.3002L89.1347 50.4041C88.1183 51.0221 86.8322 51.2556 84.7068 51.2556H82.0377C78.9688 51.2556 77.2788 49.7807 77.2788 47.0812V38.8985C77.2788 36.1976 78.9695 34.7241 82.0377 34.7241H84.7068C86.8295 34.7241 88.1143 34.9776 89.1347 35.5963L89.3002 35.7002L90.8727 33.3741L90.7072 33.2703C89.3452 32.3837 87.6507 32.0034 85.0586 32.0034H81.9136ZM100.059 32.0034C94.9592 32.0034 92.6314 35.3886 92.6314 38.5454V47.4342C92.6314 50.5917 94.9551 53.997 100.039 53.997H103.68C108.765 53.997 111.067 50.5917 111.067 47.4342V38.5454C111.067 35.3893 108.742 32.0034 103.639 32.0034H100.059ZM121.557 32.045C117.171 32.045 114.336 34.5441 114.336 38.4V53.8931H117.109V38.7531C117.109 36.0742 118.6 34.7656 121.681 34.7656C124.604 34.7656 126.213 36.1014 126.213 38.5039V53.8931H128.985V38.5039C128.985 36.1014 130.594 34.7656 133.516 34.7656C136.599 34.7656 138.11 36.0742 138.11 38.7531V53.8931H140.862V38.4C140.862 34.5441 138.025 32.045 133.641 32.045C130.714 32.045 128.947 32.7712 127.599 34.5164C126.253 32.7712 124.48 32.045 121.557 32.045ZM24 32.1488V47.6419C24 51.4972 26.8346 53.997 31.2211 53.997C34.1443 53.997 35.9167 53.2728 37.2628 51.5256C38.6095 53.2728 40.3807 53.997 43.3045 53.997C47.689 53.997 50.5256 51.4972 50.5256 47.6419V32.1488H47.7737V47.2888C47.7737 49.9665 46.2618 51.2556 43.1804 51.2556C40.2585 51.2556 38.6491 49.9385 38.6491 47.5381V32.1488H35.8972V47.5381C35.8972 49.9379 34.2885 51.2556 31.3659 51.2556C28.2845 51.2556 26.7726 49.9665 26.7726 47.2888V32.1488H24ZM145.89 32.1488C145.308 32.1488 144.81 32.3591 144.4 32.7718C143.987 33.1865 143.779 33.6817 143.779 34.2672C143.779 34.858 143.992 35.3685 144.4 35.7832C144.809 36.1986 145.304 36.4063 145.89 36.4063C146.474 36.4063 146.967 36.1986 147.379 35.7832C147.793 35.3659 148 34.8553 148 34.2672C148 33.6803 147.793 33.1852 147.379 32.7718C146.967 32.3591 146.474 32.1488 145.89 32.1488ZM145.89 32.4396C146.393 32.4396 146.817 32.62 147.172 32.9795C147.525 33.3364 147.71 33.7815 147.71 34.2879C147.71 34.7963 147.525 35.2167 147.172 35.5756C146.82 35.9344 146.395 36.1155 145.89 36.1155C145.386 36.1155 144.959 35.9344 144.607 35.5756C144.256 35.2167 144.069 34.7963 144.069 34.2879C144.069 33.7822 144.254 33.3364 144.607 32.9795C144.962 32.62 145.389 32.4396 145.89 32.4396ZM145.041 33.1041V35.4302H145.434V34.5164H145.765C145.984 34.5164 146.134 34.5503 146.221 34.5994C146.366 34.6858 146.428 34.8488 146.427 35.1187V35.3056L146.448 35.3886C146.451 35.3993 146.446 35.4014 146.448 35.4094C146.451 35.4174 146.445 35.4215 146.448 35.4302H146.841L146.821 35.4094C146.81 35.3888 146.804 35.3473 146.8 35.2848C146.795 35.2237 146.8 35.1731 146.8 35.1187V34.9317C146.8 34.8134 146.761 34.7023 146.676 34.5787C146.592 34.4544 146.464 34.3788 146.283 34.3502C146.428 34.327 146.536 34.2976 146.614 34.2464C146.766 34.1474 146.841 33.9767 146.841 33.7687C146.841 33.4736 146.708 33.2869 146.469 33.1872C146.335 33.1307 146.136 33.1041 145.848 33.1041H145.041ZM145.434 33.3741H145.786C146.013 33.3741 146.179 33.4181 146.283 33.478C146.386 33.5345 146.448 33.6414 146.448 33.8103C146.448 33.9897 146.362 34.1196 146.2 34.1841C146.114 34.218 145.98 34.2256 145.807 34.2256H145.434V33.3741ZM100.163 34.7241H103.535C106.561 34.7241 108.294 36.2362 108.294 38.8985V47.0812C108.294 49.7415 106.561 51.2556 103.535 51.2556H100.163C97.0927 51.2556 95.404 49.7807 95.404 47.0812V38.8985C95.404 36.2361 97.1377 34.7241 100.163 34.7241Z" fill="black"/>
</svg>
